packages/core/src/svgs/fitfi.svg

<svg width="24" height="24" viewBox="0 0 24 24" fill="none" xmlns="http://www.w3.org/2000/svg">
<g clip-path="url(#clip0_31_10323)">
<path d="M0 0H24V24H0V0Z" fill="#F9D549"/>
<path d="M9.11147 5.67426C9.17988 5.62477 9.25894 5.59202 9.3423 5.57862C9.42566 5.56522 9.511 5.57156 9.59147 5.59712C9.59147 5.59712 10.7486 5.91855 11.0229 7.04141C11.0667 7.272 11.1724 7.48634 11.3287 7.66149C11.485 7.83663 11.6859 7.96598 11.91 8.03569C12.1458 8.12998 12.3986 8.17283 12.6429 8.19855V7.69712C12.6435 7.55698 12.6716 7.41832 12.7258 7.28907C12.7799 7.15981 12.859 7.04248 12.9585 6.94379C13.058 6.84509 13.1759 6.76696 13.3056 6.71385C13.4353 6.66074 13.5742 6.6337 13.7143 6.63426C14.3058 6.63426 14.7858 7.10998 14.7858 7.69712V8.75998C14.7858 8.83013 14.7719 8.89958 14.7449 8.96434C14.7179 9.0291 14.6784 9.08787 14.6286 9.13728C14.5788 9.18668 14.5197 9.22574 14.4547 9.25219C14.3898 9.27864 14.3202 9.29197 14.25 9.29141C13.3586 9.44998 13.1786 10.4014 13.1786 10.8857C13.1786 12.2485 14.2158 14.07 15.7929 14.07C15.87 14.0614 15.9472 14.07 16.02 14.0914C16.2943 14.1771 16.3372 14.3785 16.38 14.5885C16.41 14.7214 16.44 14.8585 16.53 14.9743C16.7015 15.1928 16.8986 15.3771 17.0872 15.5614C17.5586 16.0071 18 16.4314 18 17.2628C18 17.8971 17.5886 18.42 17.1172 18.6257C16.6458 18.8357 16.1443 18.8571 15.6815 18.8571C14.0529 18.8571 12.9129 17.8843 12.2958 17.3571L12.0729 17.1728C11.0015 16.3157 10.0543 15.3 9.1029 14.2843C8.35845 13.4626 7.57617 12.6761 6.75861 11.9271C5.31433 10.6414 5.1429 8.81141 5.1429 8.81141C5.13002 8.69135 5.15875 8.57052 5.22428 8.46911C5.28981 8.3677 5.38816 8.29186 5.5029 8.25426L6.87433 7.79998C6.96861 7.55141 7.13147 7.20855 7.52147 6.87855C7.9929 6.47569 9.10718 5.66998 9.10718 5.66998L9.11147 5.67426ZM9.97718 7.28998C9.90861 6.98998 9.67718 6.83141 9.48861 6.72855L9.42004 6.77569C9.11576 7.00283 8.50718 7.44855 8.22004 7.68855C8.08832 7.81419 7.98209 7.96407 7.90718 8.12998L8.7429 9.17141C9.19718 9.71141 8.30147 10.3628 7.9029 9.83141L7.11433 8.84569L6.31718 9.11141C6.41147 9.55283 6.6429 10.3971 7.47433 11.13C8.28641 11.8759 9.06298 12.6597 9.80147 13.4785C10.7443 14.4857 11.6872 15.4928 12.7458 16.3457C12.8315 16.41 12.9172 16.4828 13.0029 16.56C13.5643 17.0228 14.2715 17.6143 15.2358 17.76C13.68 16.6371 11.3143 14.1 10.5 12.48C10.6372 12.6385 11.1086 12.9214 11.2843 12.7971C11.4729 12.66 11.5072 12.4114 11.3915 12.2185C11.2629 12.0214 11.0358 11.7943 10.8043 11.5585C10.3972 11.1557 9.96433 10.7185 9.96433 10.3543C9.96433 9.98998 10.2 9.82283 10.5 9.82283C10.6286 9.82283 10.7529 9.92141 10.8858 10.0371C11.07 10.1785 11.28 10.35 11.5715 10.35C11.7986 10.35 12.1072 10.2128 12.1072 9.82283C12.1072 9.51426 11.9358 9.14569 11.61 9.05569C11.2103 8.92512 10.8507 8.69424 10.5656 8.38512C10.2805 8.076 10.0794 7.69895 9.98147 7.28998H9.97718ZM15.6858 15.63C15.5829 15.5014 15.4886 15.3385 15.4243 15.1585C15.0943 15.1971 14.7858 15.3043 14.7858 15.6728C14.7858 16.7485 16.0029 17.3314 16.7958 17.6014C16.8986 17.5457 16.9286 17.4857 16.9286 17.2628C16.9286 16.7485 16.5515 16.4271 16.1786 16.1057C15.9986 15.9557 15.8229 15.8057 15.6858 15.63ZM15.5229 9.85283C16.0158 10.0543 15.8786 10.6971 15.6129 11.0271C15.39 11.3014 14.9315 11.52 14.58 11.3785C14.4989 11.3453 14.4271 11.2926 14.3711 11.2251C14.315 11.1576 14.2764 11.0773 14.2587 10.9914C14.2409 10.9055 14.2445 10.8165 14.2691 10.7324C14.2938 10.6482 14.3387 10.5713 14.4 10.5085C14.5029 10.41 14.6443 10.3543 14.7858 10.3543C14.7815 9.98569 15.1715 9.71141 15.5229 9.85283ZM16.2343 11.5671C16.1325 11.4671 15.9956 11.4111 15.8529 11.4111C15.7102 11.4111 15.5733 11.4671 15.4715 11.5671C15.3729 11.67 15.3215 11.8071 15.3215 11.9485C15.2333 11.9477 15.1462 11.9687 15.0681 12.0096C14.9899 12.0505 14.9231 12.11 14.8735 12.1829C14.8239 12.2559 14.793 12.3399 14.7837 12.4276C14.7744 12.5153 14.7869 12.604 14.82 12.6857C14.9058 12.8828 15.1029 13.0157 15.3215 13.0114C15.6643 13.0114 15.9772 12.8357 16.1486 12.6214C16.3715 12.3428 16.5258 11.85 16.2343 11.5671Z" fill="#010204"/>
</g>
<defs>
<clipPath id="clip0_31_10323">
<rect width="24" height="24" fill="white"/>
</clipPath>
</defs>
</svg>

<svg xmlns="http://www.w3.org/2000/svg" width="24" height="24" fill="none" viewBox="0 0 24 24"><g clip-path="url(#a)"><path fill="#F9D549" d="M0 0h24v24H0z"/><path fill="#010204" d="M9.111 5.674a.54.54 0 0 1 .48-.077s1.158.322 1.432 1.444a1.3 1.3 0 0 0 .887.995c.236.094.489.137.733.163v-.502a1.067 1.067 0 0 1 1.071-1.063c.592 0 1.072.476 1.072 1.063V8.76a.53.53 0 0 1-.536.531c-.891.159-1.071 1.11-1.071 1.595 0 1.363 1.037 3.184 2.614 3.184a.6.6 0 0 1 .227.021c.274.086.317.288.36.498.03.132.06.27.15.385.171.219.369.403.557.587.472.446.913.87.913 1.702 0 .634-.411 1.157-.883 1.363-.471.21-.973.231-1.436.231-1.628 0-2.768-.973-3.385-1.5l-.223-.184c-1.072-.857-2.019-1.873-2.97-2.889a36 36 0 0 0-2.344-2.357c-1.445-1.286-1.616-3.116-1.616-3.116a.53.53 0 0 1 .36-.557L6.874 7.8a2.15 2.15 0 0 1 .647-.921c.472-.403 1.586-1.209 1.586-1.209zm.866 1.616c-.068-.3-.3-.459-.488-.561l-.069.047c-.304.227-.913.673-1.2.913a1.4 1.4 0 0 0-.313.441l.836 1.041c.454.54-.442 1.192-.84.66l-.789-.985-.797.265a3.6 3.6 0 0 0 1.157 2.019q1.219 1.12 2.327 2.348c.943 1.008 1.886 2.015 2.945 2.868q.128.097.257.214c.561.463 1.268 1.054 2.233 1.2-1.556-1.123-3.922-3.66-4.736-5.28.137.159.609.441.784.317a.43.43 0 0 0 .107-.578c-.128-.198-.355-.425-.587-.66-.407-.403-.84-.84-.84-1.205 0-.364.236-.531.536-.531.129 0 .253.098.386.214.184.141.394.313.686.313.227 0 .535-.137.535-.527 0-.309-.171-.677-.497-.767A2.46 2.46 0 0 1 9.981 7.29zm5.709 8.34a1.7 1.7 0 0 1-.262-.472c-.33.04-.638.146-.638.515 0 1.076 1.217 1.658 2.01 1.928.103-.055.133-.115.133-.338 0-.515-.377-.836-.75-1.157-.18-.15-.356-.3-.493-.476m-.163-5.777c.493.201.356.844.09 1.174-.223.274-.681.493-1.033.352a.535.535 0 0 1-.18-.87.56.56 0 0 1 .386-.155.543.543 0 0 1 .737-.501m.711 1.714a.544.544 0 0 0-.763 0 .55.55 0 0 0-.15.381.536.536 0 0 0-.501.738.54.54 0 0 0 .502.325c.342 0 .655-.175.827-.39.223-.278.377-.771.085-1.054"/></g><defs><clipPath id="a"><path fill="#fff" d="M0 0h24v24H0z"/></clipPath></defs></svg>
